X:2
T: Klein Mtterchen geht, S. 18
N: S0065
O: Luxemburg
S: Die Bauernhochzeit in frheren Zeiten]
R: Brautlied]
M: 2/4
L: 1/8
K: F
F | F2GA | B2z
B | A2cd | c2z2 |
dcBA | G2G
G | cBAG | F2z

@@@ Tune index: 8056
